!!!COM: Haydn, Franz Joseph
!!!OTL: String Quartet in D Minor
!!!OPS: Opus 42
!!!OMD: Menuetto
!!!OMV: 2
!!!SCT: H III:43
!!!SCA: Thematisch-bibliographisches Werkevererzeichnis (A. van Hoboken)
!!!YOR: Trautwein Edition
!!!ENC: Frances Bennion
!!!CDT: 1732/3/31/-1809/5/31/
!!!CNT: Oesterreich
!!!YEC: Copyright (c) 1994, 2000 Center for Computer Assisted Research in the Humanities
!!!YEM: Rights to all derivative editions reserved.
!!!YEM: Refer to licensing agreement for further details.
!!!YEN: United States of America
**kern	**kern	**kern	**kern
*k[f#c#]	*k[f#c#]	*k[f#c#]	*k[f#c#]
*D:	*D:	*D:	*D:
*clefF4	*clefC3	*clefG	*clefG
*M3/4	*M3/4	*M3/4	*M3/4
8f#	8d	8a	8dd
8r	8r	8r	8r
8e	8e	8g	8cc#
8r	8r	8r	8r
8d	8f#	8f#	8dd
8r	8r	8r	8r
=2	=2	=2	=2
4c#	4a	4e	8dd#
.	.	.	8ee
2r	2r	2r	8ff#
.	.	.	8gg
.	.	.	8gg#
.	.	.	8aa
=3	=3	=3	=3
8B	8d	8gg#	8bb
8r	8r	8r	8r
8A	8c#	8aa	8ccc#
8r	8r	8r	8r
8G#	8B	8bb	8ddd
8r	8r	8r	8r
=4	=4	=4	=4
4A	4c# 4e	4aa	8ddd
.	.	.	8ccc#
2r	2r	2r	8bb
.	.	.	8aa
.	.	.	8gg#
.	.	.	8aa
=5	=5	=5	=5
2.r	8d#	8aa	2bb
.	8e	8gg	.
.	8f#	8ff#	.
.	8g	8ee	.
.	8a	8dd#	8ccc
.	8g	8ee	8bb
=6	=6	=6	=6
2.r	8c#	8gg	2aa
.	8d	8ff#	.
.	8e	8ee	.
.	8f#	8dd	.
.	8g	8cc#	8bb
.	8f#	8dd	8aa
=7	=7	=7	=7
2.G	4d	2.b	8aa
.	.	.	8gg
.	4e	.	8ff#
.	.	.	8ee
.	4g	.	8dd#
.	.	.	8ee
=8	=8	=8	=8
4A	4a	2f#	2dd
4AA	4A	.	.
4AA	4A	4e	4cc#
=9	=9	=9	=9
[2.A	2.r	8cc#	8aa
.	.	8r	8r
.	.	8b	8gg#
.	.	8r	8r
.	.	8cc#	8aa
.	.	8r	8r
=10	=10	=10	=10
2.A_	8g#	4dd	2.bb
.	8a	.	.
.	8b	4b	.
.	8cc#	.	.
.	8dd	4g#	.
.	8dd#	.	.
=11	=11	=11	=11
2.A]	8ee	2.g	8ccc#
.	8r	.	8r
.	8dd	.	8bb
.	8r	.	8r
.	8ee	.	8ccc#
.	8r	.	8r
=12	=12	=12	=12
[2.AA	4ff#	2.f#	8ddd
.	.	.	8eee
.	4dd	.	8fff#
.	.	.	8eee
.	4a	.	8ddd
.	.	.	8ccc#
=13	=13	=13	=13
2.AA]	2.g#	2d	8bb
.	.	.	8aa
.	.	.	8gg#
.	.	.	8ff#
.	.	4B	8ee
.	.	.	8dd
=14	=14	=14	=14
8AA	4a	8c#	4cc#
8BB	.	8d	.
8C#	2r	8e	2r
8D	.	8f#	.
8E	.	8g	.
8F#	.	8a	.
=15	=15	=15	=15
8G	2.r	8b	2.r
8A	.	8cc#	.
8B	.	8dd	.
8c#	.	8ee	.
8d	.	8ff#	.
8e	.	8gg	.
=16	=16	=16	=16
8f#	8d	8aa	8dd
8r	8r	8r	8r
8e	8e	8g	8cc#
8r	8r	8r	8r
8d	8f#	8f#	8dd
8r	8r	8r	8r
=17	=17	=17	=17
4c#	4a	4e	8dd#
.	.	.	8ee
2r	2r	2r	8ff#
.	.	.	8gg
.	.	.	8gg#
.	.	.	8aa
=18	=18	=18	=18
8B	8d	8gg#	8bb
8r	8r	8r	8r
8A	8c#	8aa	8ccc#
8r	8r	8r	8r
8G#	8B	8bb	8ddd
8r	8r	8r	8r
=19	=19	=19	=19
4A	4c# 4e	4aa	8ddd
.	.	.	8ccc#
2r	2r	2r	8bb
.	.	.	8aa
.	.	.	8gg#
.	.	.	8aa
=20	=20	=20	=20
2.r	8d#	8aa	2bb
.	8e	8gg	.
.	8f#	8ff#	.
.	8g	8ee	.
.	8a	8dd#	8ccc
.	8g	8ee	8bb
=21	=21	=21	=21
2.r	8c#	8gg	2aa
.	8d	8ff#	.
.	8e	8ee	.
.	8f#	8dd	.
.	8g	8cc#	8bb
.	8f#	8dd	8aa
=22	=22	=22	=22
2G	4d	2b	8aa
.	.	.	8gg
.	4e	.	8ff#
.	.	.	8ee
4A	4e	4g	8dd
.	.	.	8cc#
=23	=23	=23	=23
[2.B	2.e	2.g	2.cc#
=24	=24	=24	=24
4B]	4d	4f#	4dd
2r	2r	2r	2r
=25	=25	=25	=25
4A	8ee	8gg	2.r
.	8r	8r	.
2r	8dd#	8ff#	.
.	8r	8r	.
.	8ee	8gg	.
.	8r	8r	.
=26	=26	=26	=26
4D	4dd	4ff#	8ff#
.	.	.	8gg
2r	2r	2r	8aa
.	.	.	8bb
.	.	.	8ccc#
.	.	.	8ddd
=27	=27	=27	=27
4AA	8ee	8gg	8eee
.	8r	8r	8fff#
2r	8cc#	8ee	8ggg
.	8r	8r	8aaa
.	8e	8g 8A	8bbb
.	8r	8r	8cccc#
=28	=28	=28	=28
4DD	4d	4f# 4A	4dddd
2r	2r	2r	2r
=29	=29	=29	=29
*d:	*d:	*d:	*d:
2.r	2.r	2.r	4aa
.	.	.	4aa
.	.	.	4aa
=30	=30	=30	=30
2.r	4c#	4e	4aa
.	4c#	4e	8aa
.	.	.	8bb-
.	4c#	4e	4aa
=31	=31	=31	=31
2.r	4c#	4e	4gg
.	8c#	8e	4gg
.	8d	8f	.
.	4c#	4e	4gg
=32	=32	=32	=32
2.r	4d	4f	4ff
.	4d	4f	2r
.	4d	4f	.
=33	=33	=33	=33
4BB-	4d	4f	4g
4BB-	8d	8f	4g
.	8e	8g	.
4BB-	4d	4f	4g
=34	=34	=34	=34
4BB-	[2.c	2.e	4g
8BB-	.	.	8g
8C	.	.	8a
4BB-	.	.	4g
=35	=35	=35	=35
4AA	4c]	4f	4f
4BB-	4d	4d	4g
4C	4G	4B-	4e
=36	=36	=36	=36
4FF	4F	4A	4f
4F	2r	2r	2r
4FF	.	.	.
=37	=37	=37	=37
2.r	2.r	2.r	4ccc
.	.	.	4ccc
.	.	.	4ccc
=38	=38	=38	=38
2.r	4g	4b-	4ccc
.	4g	4b-	8ccc
.	.	.	8ddd
.	4g	4b-	4ccc
=39	=39	=39	=39
4c	4g	4b-	4ee
4c	8g	8b-	4ee
.	8a	8cc	.
4c	4g	4b-	4ee
=40	=40	=40	=40
4c	4f	4a	4ff
8c	4f	4a	8ff
8d	.	.	8ee
4c	4f	4a	4ff
=41	=41	=41	=41
4AA	4e	4g	4cc#
4AA	4e	4g	4cc#
4AA	4e	4g	4cc#
=42	=42	=42	=42
4AA	4e	4g	4cc#
8AA	8e	8g	8cc#
8BB-	8d	8f	8dd
4AA	4e	4g	4cc#
=43	=43	=43	=43
4GG#	4d	4f	4dd
4AA	4F	4d	4f
4AA	4G	4c#	4e
=44	=44	=44	=44
4D	4F	4d	4d
4AA	2r	2r	2r
4DD	.	.	.
==	==	==	==
*-	*-	*-	*-
!!!RWG1: This file contains only pitch and duration data.
!!!RWG2: Transposing instruments are not transposed.
!!!RWG3: Spines may have incompatible meters.
!!!RWG4: Durations of rests and tied notes may be interpreted.
!!!RWG: Key is interpreted using the Humdrum key tool.
!!!AFT: stage1
!!!END: 1997/04/15
!!!KEY: 3599091030
!!!EMD: Converted from MuseData to Humdrum Dec 16, 2000, by Andreas Kornstaedt using muse2kern.
!!!EMD: Manual editing by Craig Sapp, Nov 2001
